packages/bezier-icons/icons/person-blocked.svg

<svg width="24" height="24" viewBox="0 0 24 24" fill="none" xmlns="http://www.w3.org/2000/svg">
<path fill-rule="evenodd" clip-rule="evenodd" d="M9.48411 11.0001C11.4171 11.0001 12.9841 9.43312 12.9841 7.50012C12.9841 5.56712 11.4171 4.00012 9.48411 4.00012C7.55111 4.00012 5.98411 5.56712 5.98411 7.50012C5.98411 9.43312 7.55111 11.0001 9.48411 11.0001ZM11.0002 17.0001C11.0002 15.3281 11.6892 13.8141 12.7962 12.7261C11.7862 12.2641 10.6672 12.0001 9.48421 12.0001C5.24221 12.0001 1.77121 15.3021 1.50121 19.4761C1.48221 19.7601 1.72221 20.0001 2.00721 20.0001H11.8122C11.2992 19.1161 11.0002 18.0931 11.0002 17.0001ZM15.7152 19.6991C16.1062 19.8861 16.5382 20.0001 17.0002 20.0001C18.6542 20.0001 20.0002 18.6541 20.0002 17.0001C20.0002 16.5381 19.8862 16.1061 19.6992 15.7151L15.7152 19.6991ZM18.2852 14.3011C17.8942 14.1131 17.4612 14.0001 17.0002 14.0001C15.3462 14.0001 14.0002 15.3461 14.0002 17.0001C14.0002 17.4621 14.1132 17.8941 14.3012 18.2851L18.2852 14.3011ZM12.0002 17.0001C12.0002 14.2381 14.2382 12.0001 17.0002 12.0001C19.7612 12.0001 22.0002 14.2381 22.0002 17.0001C22.0002 19.7611 19.7612 22.0001 17.0002 22.0001C14.2382 22.0001 12.0002 19.7611 12.0002 17.0001Z" fill="#313234"/>
</svg>

<svg xmlns="http://www.w3.org/2000/svg" width="24" height="24" fill="none" viewBox="0 0 24 24"><path fill="#313234" fill-rule="evenodd" d="M9.484 11a3.5 3.5 0 1 0 0-7 3.5 3.5 0 0 0 0 7M11 17c0-1.672.69-3.186 1.796-4.274A7.9 7.9 0 0 0 9.484 12a8 8 0 0 0-7.983 7.476.503.503 0 0 0 .506.524h9.805A5.96 5.96 0 0 1 11 17m4.715 2.7c.391.186.823.3 1.285.3 1.654 0 3-1.346 3-3 0-.462-.114-.894-.3-1.285zm2.57-5.399a2.95 2.95 0 0 0-1.285-.3c-1.654 0-3 1.345-3 3 0 .461.113.893.301 1.284zM12 17.001a5 5 0 1 1 10 0 5 5 0 0 1-10 0" clip-rule="evenodd"/></svg>
